X:1
T:Title
%%score 1 2 3
L:1/8
M:2/2
K:C
V:1 treble nm="Part_1"
V:2 treble-8 nm="Part_2"
V:3 treble-8 nm="Part_3"
V:1
 F8 | G4 A4- | A4 A4 | G4 A4- | A4 G4- | G4 ^F4 | G8 | z4 G4 | F4 A4- | A4 F4- | F4 E4- | E4 F4- | %12
 F4 G4 | F4 E4- | E4 D4- | D4 C4 | D8- | D8 | z4 G4 | G8 | F4 A4- | A4 F4 | E4 F4- | F4 G4 | %24
 E4 F4 | D8 | C8 | z8 | D4 C4 | F8 | E4 F4- | F2 G2 A4- | A4 F4- | F4 E4 | F8 | z4 D4 | E4 F4- | %37
 F4 E4 | C4 D4- | D4 C4- | C4 B,4 | C8 | z4 C4- | C4 D4- | D4 F4- | F4 D4- | D4 E4 | F8 | G4 A4- | %49
 A4 G4 | A4 _B4- | B4 A4- | A4 G4 | A8 | z4 E4- | E4 F4- | F4 G4- | G4 F4- | F4 E4- | E4 F4- | %60
 F4 D4- | D4 C4 | D8 |] %63
V:2
 F8 | c8 | A4 F4 | c8 | d4 B4 | A8 | G8 | E8 | D8 | d8 | A8 | G4 A4 | _B8 | A8 | G4 F4 | E8 | D8- | %17
 D8 | C8 | _E8 | D8 | A8- | A8 | z4 G4 | c4 A4 | B8 | c8- | c8 | z4 A4- | A4 d4 | c4 A4- | A4 F4 | %32
 A4 _B4 | G8 | F8- | F8 | z4 D4- | D4 C4 | F8 | E8 | D8 | C8 | E8 | F8 | D8 | F8 | G8 | A4 _B4- | %48
 B4 A4 | c8 | A4 G4 | d4 c4 | _B8 | A8- | A8 | z4 D4 | F4 E4- | E4 D4 | A8 | G4 A4 | D8 | E8 | %62
 D8 |] %63
V:3
 c8 | C4 F4- | F4 D4 | E4 F4 | D4 G4 | D8 | d4 d4- | d4 c4 | d8 | D8- | D4 C4 | E4 D4- | D4 G4 | %13
 A4 c4 | _B4 A4- | A4 G4 | A4 _B4- | B4 A4 | c8 | _B4 G4 | A4 F4 | D8 | C4 D4- | D4 E4 | C4 D4 | %25
 G8 | A4 F4- | F4 E4 | D4 F4 | D8 | A4 D4- | D4 d4 | c4 d4 | _B6 A2 | c8 | A8 | c4 d4- | d4 G4 | %38
 A8 | G4 G4- | G4 F4 | G8- | G8 | A8- | A8 | z4 A4 | B8 | c4 d4- | d4 D4 | C4 E4 | F4 G4 | D4 F4 | %52
 G8 | D8 | C8 | G4 A4- | A4 c4- | c4 d4 | D4 C4- | C4 c4 | B4 A4- | A4 G4 | A8 |] %63

